X: 153
T: Açılır Gonca Gül Yâr
C: Erol Sayan
O: Turkey
F: http://compmusic.upf.edu/node/140
N: segah--turku--nimsofyan--acilir_gonca_gul--erol_sayan
N: makam= segah
N: form= turku
N: usul= nimsofyan = 2/4
M: 2/4
L: 1/16
K: C _1/4B _1/4e ^f 
Q: 1/4=96
%%MIDI tuningsystem comma53
z2BB c2d2  | z2BB c2d2  | z2BB c2d2  | cBc^A B4  | \
w:   |   |   |   | 
z2BB c2d2  | 
w:   | 
BBB2 c2d2  | z2BB c2d2  | cBc^A B4  | d8  | d8  | \
w:   |   |   |  Hey  |   | 
dcd2 dcd2  | 
w:   | 
dcd2 d4  | z2Bc d2d2  | d2{e}dc dcd2  | \
w:   |  A çı lır  gon  |  ca  *  gül  *  *  *  yâr    | 
z2Bc d2d2  | d2{e}dc dcd2  | 
w:  Se ni  sev se   |  bül *  bül  *  *  *  yâr    | 
z2Bc d2d2  | d2{e}dc dcd2  | z2Bc d2d2  | \
w:  A çı lır  gon  |  ca  *  gül  *  *  *  yâr    |  Se ni  sev se   | 
d2{e}dc dcd2  | 
w:  bül *  bül  *  *  *  yâr    | 
z2fg g2g2  | gfga fge2  | z2e=f f2f2  | \
w:  Se ni  Mec nun   |  gör *  *  *  sey *  di    |  Dü şüp_ öl mez   | 
=fefg efd2  | 
w:  miy *  *  *  di  *  yâr    | 
z2fg g2g2  | gfga fge2  | z2e=f f2f2  | \
w:  Se ni  Mec nun   |  gör *  *  *  sey *  di    |  Dü şüp_ öl mez   | 
=fefg efd2  | 
w:  miy *  *  *  di  *  yâr    | 
z2B2 c2d2  | z2B2 c2d2  | z2B2 c2d2  | cBc^A B4  | \
w:  Kaş la rın  |  göz le rin  |  söz le rin  |  ne *  gü *  zel  | 
z2B2 c2d2  | 
w:  Kaş la rın  | 
z2B2 c2d2  | z2B2 c2d2  | cBc^A B4  | z2BB c2d2  | \
w:  göz le rin  |  söz le rin  |  ne *  gü *  zel  |   | 
z2BB c2d2  | 
w:   | 
z2BB c2d2  | cBc^A B4  | z2BB c2d2  | BBB2 c2d2  | \
w:   |   |   |   | 
z2BB c2d2  | 
w:   | 
cBc^A B4  | d8  | d8  | dcd2 dcd2  | dcd2 d4  | \
w:   |  Hey  |   |   |   | 
z2Bc d2d2  | 
w:  A çı lır  gon  | 
d2{e}dc dcd2  | z2Bc d2d2  | d2{e}dc dcd2  | \
w:  ca  *  gül  *  *  *  yâr    |  Se ni  sev se   |  bül *  bül  *  *  *  yâr    | 
z2Bc d2d2  | 
w:  A çı lır  gon  | 
d2{e}dc dcd2  | z2Bc d2d2  | d2{e}dc dcd2  | \
w:  ca  *  gül  *  *  *  yâr    |  Se ni  sev se   |  bül *  bül  *  *  *  yâr    | 
z2fg g2g2  | 
w:  Se ni  Mec nun   | 
gfga fge2  | z2e=f f2f2  | =fefg efd2  | \
w:  gör *  *  *  sey *  di    |  Dü şüp_ öl mez   |  miy *  *  *  di  *  yâr    | 
z2fg g2g2  | 
w:  Se ni  Mec nun   | 
gfga fge2  | z2e=f f2f2  | =fefg efd2  | \
w:  gör *  *  *  sey *  di    |  Dü şüp_ öl mez   |  miy *  *  *  di  *  yâr    | 
z2B2 c2d2  | 
w:  Kaş la rın  | 
z2B2 c2d2  | z2B2 c2d2  | cBc^A B4  | z2B2 c2d2  | \
w:  göz le rin  |  söz le rin  |  ne *  gü *  zel  |  Kaş la rın  | 
z2B2 c2d2  | 
w:  göz le rin  | 
z2B2 c2d2  | cBc^A B4  | |


